img/cont-6.svg

<svg width="44" height="40" viewBox="0 0 44 40" fill="none" xmlns="http://www.w3.org/2000/svg">
<circle cx="20" cy="20" r="20" fill="#F5E9EA"/>
<path d="M39 11H36.5V9.75C36.5 9.41848 36.3683 9.10054 36.1339 8.86612C35.8995 8.6317 35.5815 8.5 35.25 8.5C34.9185 8.5 34.6005 8.6317 34.3661 8.86612C34.1317 9.10054 34 9.41848 34 9.75V11H30.25V9.75C30.25 9.41848 30.1183 9.10054 29.8839 8.86612C29.6495 8.6317 29.3315 8.5 29 8.5C28.6685 8.5 28.3505 8.6317 28.1161 8.86612C27.8817 9.10054 27.75 9.41848 27.75 9.75V11H24V9.75C24 9.41848 23.8683 9.10054 23.6339 8.86612C23.3995 8.6317 23.0815 8.5 22.75 8.5C22.4185 8.5 22.1005 8.6317 21.8661 8.86612C21.6317 9.10054 21.5 9.41848 21.5 9.75V11H19C18.337 11 17.7011 11.2634 17.2322 11.7322C16.7634 12.2011 16.5 12.837 16.5 13.5V31C16.5 31.663 16.7634 32.2989 17.2322 32.7678C17.7011 33.2366 18.337 33.5 19 33.5H39C39.663 33.5 40.2989 33.2366 40.7678 32.7678C41.2366 32.2989 41.5 31.663 41.5 31V13.5C41.5 12.837 41.2366 12.2011 40.7678 11.7322C40.2989 11.2634 39.663 11 39 11ZM19 31V17.25H27.375L27.875 16.7387C28.4171 16.1544 29.0821 15.6977 29.8221 15.4015C30.5621 15.1053 31.3586 14.9771 32.1541 15.026C32.9497 15.0749 33.7245 15.2997 34.4226 15.6843C35.1207 16.0689 35.7248 16.6037 36.1913 17.25H39V31H19Z" fill="#DA2B36"/>
<path d="M26.6737 21.5138L23.1113 25.125C22.8808 25.358 22.751 25.6723 22.75 26V28.5C22.75 28.8315 22.8817 29.1495 23.1161 29.3839C23.3505 29.6183 23.6685 29.75 24 29.75H26.5C26.8276 29.7493 27.1418 29.62 27.375 29.39L30.9825 25.8263L26.6737 21.5138Z" fill="#F0989F"/>
<path d="M34 18.5C33.7141 18.214 33.3746 17.9871 33.001 17.8323C32.6274 17.6774 32.2269 17.5978 31.8225 17.5978C31.4181 17.5978 31.0176 17.6774 30.644 17.8323C30.2704 17.9871 29.9309 18.214 29.645 18.5L28.4313 19.7287L32.7662 24.0638L34 22.85C34.5762 22.2728 34.8997 21.4906 34.8997 20.675C34.8997 19.8594 34.5762 19.0772 34 18.5Z" fill="#F0989F"/>
</svg>

<svg width="44" height="40" fill="none" xmlns="http://www.w3.org/2000/svg"><circle cx="20" cy="20" r="20" fill="#F5E9EA"/><path d="M39 11h-2.5V9.75a1.25 1.25 0 0 0-2.5 0V11h-3.75V9.75a1.25 1.25 0 0 0-2.5 0V11H24V9.75a1.25 1.25 0 0 0-2.5 0V11H19a2.5 2.5 0 0 0-2.5 2.5V31a2.5 2.5 0 0 0 2.5 2.5h20a2.5 2.5 0 0 0 2.5-2.5V13.5A2.5 2.5 0 0 0 39 11ZM19 31V17.25h8.375l.5-.511a5.386 5.386 0 0 1 8.316.511H39V31H19Z" fill="#DA2B36"/><path d="m26.674 21.514-3.563 3.611a1.25 1.25 0 0 0-.361.875v2.5A1.25 1.25 0 0 0 24 29.75h2.5c.328 0 .642-.13.875-.36l3.608-3.564-4.31-4.312ZM34 18.5a3.08 3.08 0 0 0-4.355 0l-1.214 1.229 4.335 4.335L34 22.85a3.078 3.078 0 0 0 0-4.35Z" fill="#F0989F"/></svg>
